X:1
T: Barney O'Neill
C:
R:Jig
Q:180
K:D
M:6/8
L:1/16
dB|A2F2D2 D2F2A2|B4d2 F4A2|A2F2D2 D2E2F2|G2F2G2 E2F2G2|A2F2D2 D2F2A2|B4d2 F4A2|B2d2d2 F4E2|F2D2D2 D4dB|
A2F2D2 D2F2A2|B4d2 F4A2|A2F2D2 D2E2F2|G2F2G2 E2F2G2|A2F2D2 D2F2A2|B4d2 F4A2|B2d2d2 F4E2|F2D2D2 D4g2|
f2e2d2 d2A2d2|e2f2e2 e2f2g2|f2e2d2 f2a2a2|a2g2f2 e2a2g2|f2e2d2 B4d2|A4d2 F4A2|B2d2d2 F4E2|F2D2D2 D4g2|
f2e2d2 d2A2d2|e2f2e2 e2f2g2|f2e2d2 f2a2a2|a2g2f2 e2a2g2|f2e2d2 B4d2|A4d2 F4A2|B2d2d2 F4E2|F2D2D2 D4||
